public/img/facebook.svg

<svg width="24" height="24" viewBox="0 0 24 24" fill="none" xmlns="http://www.w3.org/2000/svg">
<path fill-rule="evenodd" clip-rule="evenodd" d="M9.93414 2.93414C11.0125 1.8558 12.475 1.25 14 1.25H17C17.4142 1.25 17.75 1.58579 17.75 2V6C17.75 6.41421 17.4142 6.75 17 6.75H14C13.9337 6.75 13.8701 6.77634 13.8232 6.82322C13.7763 6.87011 13.75 6.9337 13.75 7V9.25H17C17.231 9.25 17.449 9.3564 17.5912 9.53844C17.7333 9.72048 17.7836 9.95785 17.7276 10.1819L16.7276 14.1819C16.6441 14.5158 16.3442 14.75 16 14.75H13.75V22C13.75 22.4142 13.4142 22.75 13 22.75H9C8.58579 22.75 8.25 22.4142 8.25 22V14.75H6C5.58579 14.75 5.25 14.4142 5.25 14V10C5.25 9.58579 5.58579 9.25 6 9.25H8.25V7C8.25 5.47501 8.8558 4.01247 9.93414 2.93414ZM14 2.75C12.8728 2.75 11.7918 3.19777 10.9948 3.9948C10.1978 4.79183 9.75 5.87283 9.75 7V10C9.75 10.4142 9.41421 10.75 9 10.75H6.75V13.25H9C9.41421 13.25 9.75 13.5858 9.75 14V21.25H12.25V14C12.25 13.5858 12.5858 13.25 13 13.25H15.4144L16.0394 10.75H13C12.5858 10.75 12.25 10.4142 12.25 10V7C12.25 6.53587 12.4344 6.09075 12.7626 5.76256C13.0908 5.43437 13.5359 5.25 14 5.25H16.25V2.75H14Z" fill="#535761"/>
</svg>

<svg width="24" height="24" fill="none" xmlns="http://www.w3.org/2000/svg"><path fill-rule="evenodd" clip-rule="evenodd" d="M9.934 2.934A5.75 5.75 0 0114 1.25h3a.75.75 0 01.75.75v4a.75.75 0 01-.75.75h-3a.25.25 0 00-.25.25v2.25H17a.75.75 0 01.728.932l-1 4a.75.75 0 01-.728.568h-2.25V22a.75.75 0 01-.75.75H9a.75.75 0 01-.75-.75v-7.25H6a.75.75 0 01-.75-.75v-4A.75.75 0 016 9.25h2.25V7a5.75 5.75 0 011.684-4.066zM14 2.75A4.25 4.25 0 009.75 7v3a.75.75 0 01-.75.75H6.75v2.5H9a.75.75 0 01.75.75v7.25h2.5V14a.75.75 0 01.75-.75h2.414l.625-2.5H13a.75.75 0 01-.75-.75V7A1.75 1.75 0 0114 5.25h2.25v-2.5H14z" fill="#535761"/></svg>
